public/icons/plastic.svg

<svg width="73" height="51" viewBox="0 0 73 51" fill="none" xmlns="http://www.w3.org/2000/svg">
    <path d="M40.0203 21.3228C40.0203 21.6929 39.7023 21.9976 39.3162 21.9976H33.6837C33.2976 21.9976 32.9797 21.6929 32.9797 21.3228V19.0592C32.9797 18.6892 33.2976 18.3845 33.6837 18.3845H39.3162C39.7023 18.3845 40.0203 18.6892 40.0203 19.0592V21.3228Z" fill="#999999"/>
    <path d="M40.0203 25.3495C40.0203 25.7195 39.7023 26.0242 39.3162 26.0242H33.6837C33.2976 26.0242 32.9797 25.7195 32.9797 25.3495V23.0859C32.9797 22.7159 33.2976 22.4112 33.6837 22.4112H39.3162C39.7023 22.4112 40.0203 22.7159 40.0203 23.0859V25.3495Z" fill="#999999"/>
    <path d="M40.0203 17.318C40.0203 17.688 39.7023 17.9927 39.3162 17.9927H33.6837C33.2976 17.9927 32.9797 17.688 32.9797 17.318V15.0544C32.9797 14.6844 33.2976 14.3797 33.6837 14.3797H39.3162C39.7023 14.3797 40.0203 14.6844 40.0203 15.0544V17.318Z" fill="#999999"/>
    <path d="M37.5902 8.72069V7.93713H35.4098V8.72069C34.0017 9.15599 32.9797 10.4402 32.9797 11.9202V13.2914C32.9797 13.6614 33.2976 13.9662 33.6837 13.9662H39.3162C39.7023 13.9662 40.0203 13.6614 40.0203 13.2914V11.9202C40.0203 10.4184 38.9983 9.15599 37.5902 8.72069Z" fill="#999999"/>
    <path d="M38.0899 7.32769C38.0899 7.43651 37.999 7.52358 37.8854 7.52358H35.1146C35.0011 7.52358 34.9102 7.43651 34.9102 7.32769V6.19589C34.9102 6.08706 35.0011 6 35.1146 6H37.9082C37.999 6 38.0899 6.08706 38.0899 6.19589V7.32769Z" fill="#999999"/>
    <path d="M17.6054 46.0242V36.8682H20.4894C21.1707 36.8682 21.7774 36.9569 22.3094 37.1342C22.8414 37.3116 23.2614 37.6056 23.5694 38.0162C23.8774 38.4269 24.0314 38.9869 24.0314 39.6962C24.0314 40.3682 23.8774 40.9236 23.5694 41.3622C23.2614 41.8009 22.846 42.1276 22.3234 42.3422C21.8007 42.5569 21.208 42.6642 20.5454 42.6642H19.2294V46.0242H17.6054ZM19.2294 41.3622H20.4194C21.7634 41.3622 22.4354 40.8069 22.4354 39.6962C22.4354 39.1176 22.258 38.7209 21.9034 38.5062C21.558 38.2822 21.0447 38.1702 20.3634 38.1702H19.2294V41.3622ZM27.1818 46.1922C26.6125 46.1922 26.2065 46.0196 25.9638 45.6742C25.7305 45.3289 25.6138 44.8576 25.6138 44.2602V36.1402H27.2238V44.3442C27.2238 44.5402 27.2611 44.6802 27.3358 44.7642C27.4105 44.8389 27.4898 44.8762 27.5738 44.8762C27.6111 44.8762 27.6438 44.8762 27.6718 44.8762C27.7091 44.8669 27.7605 44.8576 27.8258 44.8482L28.0358 46.0522C27.9425 46.0896 27.8211 46.1222 27.6718 46.1502C27.5318 46.1782 27.3685 46.1922 27.1818 46.1922ZM31.0806 46.1922C30.4832 46.1922 29.9932 46.0056 29.6106 45.6322C29.2372 45.2589 29.0506 44.7736 29.0506 44.1762C29.0506 43.4389 29.3726 42.8696 30.0166 42.4682C30.6606 42.0576 31.6872 41.7776 33.0966 41.6282C33.0872 41.2642 32.9892 40.9516 32.8026 40.6902C32.6252 40.4196 32.3032 40.2842 31.8366 40.2842C31.5006 40.2842 31.1692 40.3496 30.8426 40.4802C30.5252 40.6109 30.2126 40.7696 29.9046 40.9562L29.3166 39.8782C29.6992 39.6356 30.1286 39.4256 30.6046 39.2482C31.0899 39.0709 31.6032 38.9822 32.1446 38.9822C33.0032 38.9822 33.6426 39.2389 34.0626 39.7522C34.4919 40.2562 34.7066 40.9889 34.7066 41.9502V46.0242H33.3766L33.2646 45.2682H33.2086C32.9006 45.5296 32.5692 45.7489 32.2146 45.9262C31.8692 46.1036 31.4912 46.1922 31.0806 46.1922ZM31.5986 44.9322C31.8786 44.9322 32.1306 44.8669 32.3546 44.7362C32.5879 44.5962 32.8352 44.4096 33.0966 44.1762V42.6362C32.1632 42.7576 31.5146 42.9396 31.1506 43.1822C30.7866 43.4156 30.6046 43.7049 30.6046 44.0502C30.6046 44.3582 30.6979 44.5822 30.8846 44.7222C31.0712 44.8622 31.3092 44.9322 31.5986 44.9322ZM38.5513 46.1922C38.0847 46.1922 37.618 46.1036 37.1513 45.9262C36.6847 45.7396 36.2833 45.5109 35.9473 45.2402L36.7033 44.2042C37.0113 44.4376 37.3193 44.6242 37.6273 44.7642C37.9353 44.9042 38.262 44.9742 38.6073 44.9742C38.9807 44.9742 39.256 44.8949 39.4333 44.7362C39.6107 44.5776 39.6993 44.3816 39.6993 44.1482C39.6993 43.9522 39.6247 43.7936 39.4753 43.6722C39.3353 43.5416 39.1533 43.4296 38.9293 43.3362C38.7053 43.2336 38.472 43.1356 38.2293 43.0422C37.9307 42.9302 37.632 42.7949 37.3333 42.6362C37.044 42.4682 36.806 42.2582 36.6193 42.0062C36.4327 41.7449 36.3393 41.4229 36.3393 41.0402C36.3393 40.4336 36.5633 39.9389 37.0113 39.5562C37.4593 39.1736 38.066 38.9822 38.8313 38.9822C39.3167 38.9822 39.7507 39.0662 40.1333 39.2342C40.516 39.4022 40.8473 39.5936 41.1273 39.8082L40.3853 40.7882C40.1427 40.6109 39.8953 40.4709 39.6433 40.3682C39.4007 40.2562 39.144 40.2002 38.8733 40.2002C38.528 40.2002 38.2713 40.2749 38.1033 40.4242C37.9353 40.5642 37.8513 40.7416 37.8513 40.9562C37.8513 41.2269 37.9913 41.4322 38.2713 41.5722C38.5513 41.7122 38.878 41.8476 39.2513 41.9782C39.5687 42.0902 39.8767 42.2302 40.1753 42.3982C40.474 42.5569 40.7213 42.7669 40.9173 43.0282C41.1227 43.2896 41.2253 43.6349 41.2253 44.0642C41.2253 44.6522 40.9967 45.1562 40.5393 45.5762C40.082 45.9869 39.4193 46.1922 38.5513 46.1922ZM44.8112 46.1922C44.0179 46.1922 43.4532 45.9636 43.1172 45.5062C42.7905 45.0396 42.6272 44.4376 42.6272 43.7002V40.4242H41.6472V39.2202L42.7112 39.1502L42.9072 37.2742H44.2512V39.1502H46.0012V40.4242H44.2512V43.7002C44.2512 44.5029 44.5732 44.9042 45.2172 44.9042C45.3385 44.9042 45.4645 44.8902 45.5952 44.8622C45.7259 44.8249 45.8379 44.7876 45.9312 44.7502L46.2112 45.9402C46.0245 46.0056 45.8099 46.0616 45.5672 46.1082C45.3339 46.1642 45.0819 46.1922 44.8112 46.1922ZM47.4478 46.0242V39.1502H49.0578V46.0242H47.4478ZM48.2598 37.9462C47.9704 37.9462 47.7371 37.8622 47.5598 37.6942C47.3824 37.5262 47.2938 37.3022 47.2938 37.0222C47.2938 36.7516 47.3824 36.5322 47.5598 36.3642C47.7371 36.1962 47.9704 36.1122 48.2598 36.1122C48.5491 36.1122 48.7824 36.1962 48.9598 36.3642C49.1371 36.5322 49.2258 36.7516 49.2258 37.0222C49.2258 37.3022 49.1371 37.5262 48.9598 37.6942C48.7824 37.8622 48.5491 37.9462 48.2598 37.9462ZM53.9818 46.1922C53.3565 46.1922 52.7918 46.0522 52.2878 45.7722C51.7932 45.4829 51.3965 45.0722 51.0978 44.5402C50.8085 43.9989 50.6638 43.3502 50.6638 42.5942C50.6638 41.8289 50.8225 41.1802 51.1398 40.6482C51.4572 40.1069 51.8772 39.6962 52.3998 39.4162C52.9318 39.1269 53.5012 38.9822 54.1078 38.9822C54.5465 38.9822 54.9292 39.0569 55.2558 39.2062C55.5825 39.3556 55.8718 39.5376 56.1238 39.7522L55.3398 40.8022C55.1625 40.6436 54.9805 40.5222 54.7938 40.4382C54.6072 40.3449 54.4065 40.2982 54.1918 40.2982C53.6412 40.2982 53.1885 40.5082 52.8338 40.9282C52.4885 41.3482 52.3158 41.9036 52.3158 42.5942C52.3158 43.2756 52.4838 43.8262 52.8198 44.2462C53.1652 44.6662 53.6085 44.8762 54.1498 44.8762C54.4205 44.8762 54.6725 44.8202 54.9058 44.7082C55.1485 44.5869 55.3678 44.4469 55.5638 44.2882L56.2218 45.3522C55.9045 45.6322 55.5498 45.8422 55.1578 45.9822C54.7658 46.1222 54.3738 46.1922 53.9818 46.1922Z" fill="#999999"/>
    </svg>

<svg xmlns="http://www.w3.org/2000/svg" width="73" height="51" fill="none"><path fill="#999" d="M40.02 21.323c0 .37-.318.675-.704.675h-5.632c-.386 0-.704-.305-.704-.675v-2.264c0-.37.318-.675.704-.675h5.632c.386 0 .704.305.704.675v2.264ZM40.02 25.35c0 .37-.318.674-.704.674h-5.632c-.386 0-.704-.305-.704-.675v-2.263c0-.37.318-.675.704-.675h5.632c.386 0 .704.305.704.675v2.264ZM40.02 17.318c0 .37-.318.675-.704.675h-5.632c-.386 0-.704-.305-.704-.675v-2.264c0-.37.318-.674.704-.674h5.632c.386 0 .704.304.704.674v2.264ZM37.59 8.72v-.783h-2.18v.784c-1.408.435-2.43 1.72-2.43 3.2v1.37c0 .37.318.675.704.675h5.632c.386 0 .704-.305.704-.675v-1.37c0-1.503-1.022-2.765-2.43-3.2ZM38.09 7.328a.2.2 0 0 1-.205.196h-2.77a.2.2 0 0 1-.205-.196V6.196A.2.2 0 0 1 35.115 6h2.793c.091 0 .182.087.182.196v1.132ZM17.605 46.024v-9.156h2.884c.682 0 1.288.089 1.82.266.532.178.952.472 1.26.882.308.41.462.97.462 1.68 0 .672-.154 1.228-.462 1.666a2.77 2.77 0 0 1-1.246.98c-.522.215-1.115.322-1.778.322H19.23v3.36h-1.624Zm1.624-4.662h1.19c1.344 0 2.016-.555 2.016-1.666 0-.578-.177-.975-.532-1.19-.345-.224-.858-.336-1.54-.336H19.23v3.192Zm7.953 4.83c-.57 0-.976-.172-1.218-.518-.233-.345-.35-.816-.35-1.414v-8.12h1.61v8.204c0 .196.037.336.112.42a.334.334 0 0 0 .238.112h.098c.037-.01.088-.018.154-.028l.21 1.204a2.523 2.523 0 0 1-.854.14Zm3.899 0c-.598 0-1.088-.186-1.47-.56-.374-.373-.56-.858-.56-1.456 0-.737.322-1.306.966-1.708.644-.41 1.67-.69 3.08-.84a1.648 1.648 0 0 0-.294-.938c-.178-.27-.5-.406-.966-.406-.336 0-.668.066-.994.196-.318.13-.63.29-.938.476l-.588-1.078a6.893 6.893 0 0 1 1.288-.63 4.452 4.452 0 0 1 1.54-.266c.858 0 1.498.257 1.918.77.429.504.644 1.237.644 2.198v4.074h-1.33l-.112-.756h-.056a4.96 4.96 0 0 1-.994.658 2.445 2.445 0 0 1-1.134.266Zm.518-1.26c.28 0 .532-.065.756-.196.233-.14.48-.326.742-.56v-1.54c-.934.122-1.582.304-1.946.546-.364.234-.546.523-.546.868 0 .308.093.532.28.672.186.14.424.21.714.21Zm6.952 1.26c-.466 0-.933-.088-1.4-.266a4.666 4.666 0 0 1-1.204-.686l.756-1.036c.308.234.616.42.924.56.308.14.635.21.98.21.374 0 .649-.08.826-.238a.757.757 0 0 0 .266-.588.584.584 0 0 0-.224-.476 1.817 1.817 0 0 0-.546-.336c-.224-.102-.457-.2-.7-.294a7.597 7.597 0 0 1-.896-.406 2.333 2.333 0 0 1-.714-.63c-.186-.261-.28-.583-.28-.966 0-.606.224-1.101.672-1.484.448-.382 1.055-.574 1.82-.574.486 0 .92.084 1.302.252.383.168.714.36.994.574l-.742.98a3.495 3.495 0 0 0-.742-.42 1.815 1.815 0 0 0-.77-.168c-.345 0-.602.075-.77.224a.663.663 0 0 0-.252.532c0 .27.14.476.42.616.28.14.607.276.98.406.318.112.626.252.924.42.299.159.546.369.742.63.206.262.308.607.308 1.036 0 .588-.228 1.092-.686 1.512-.457.41-1.12.616-1.988.616Zm6.26 0c-.793 0-1.358-.228-1.694-.686-.326-.466-.49-1.068-.49-1.806v-3.276h-.98V39.22l1.064-.07.196-1.876h1.344v1.876h1.75v1.274h-1.75V43.7c0 .803.322 1.204.966 1.204.122 0 .248-.014.378-.042a3.49 3.49 0 0 0 .336-.112l.28 1.19a4.56 4.56 0 0 1-.644.168 3.234 3.234 0 0 1-.756.084Zm2.637-.168V39.15h1.61v6.874h-1.61Zm.812-8.078c-.29 0-.523-.084-.7-.252-.178-.168-.266-.392-.266-.672 0-.27.088-.49.266-.658.177-.168.41-.252.7-.252s.522.084.7.252a.865.865 0 0 1 .266.658c0 .28-.089.504-.266.672-.178.168-.41.252-.7.252Zm5.722 8.246c-.626 0-1.19-.14-1.694-.42-.495-.29-.891-.7-1.19-1.232-.29-.541-.434-1.19-.434-1.946 0-.765.158-1.414.476-1.946a3.195 3.195 0 0 1 1.26-1.232 3.521 3.521 0 0 1 1.708-.434c.439 0 .821.075 1.148.224.327.15.616.332.868.546l-.784 1.05a2.143 2.143 0 0 0-.546-.364 1.328 1.328 0 0 0-.602-.14c-.55 0-1.004.21-1.358.63-.346.42-.518.976-.518 1.666 0 .682.168 1.232.504 1.652.345.42.788.63 1.33.63.27 0 .523-.056.756-.168.242-.121.462-.261.658-.42l.658 1.064c-.318.28-.672.49-1.064.63s-.784.21-1.176.21Z"/></svg>
